packages/icons/src/components/Logo/assets/light/airflow.svg

<svg width="20" height="20" viewBox="0 0 20 20" fill="none" xmlns="http://www.w3.org/2000/svg">
<path d="M0.322527 19.9201L9.89813 10.1044C9.95811 10.0429 9.96961 9.94787 9.91958 9.87804C9.33709 9.06495 8.26285 8.92402 7.86462 8.37776C6.68501 6.75963 6.38571 5.84376 5.87882 5.90056C5.84341 5.90453 5.81185 5.92359 5.78697 5.94909L2.32776 9.49504C0.337737 11.5349 0.0523569 16.0263 2.01603e-05 19.7871C-0.00234433 19.9571 0.20384 20.0417 0.322527 19.9201Z" fill="#017CEE"/>
<path d="M19.9203 19.6775L10.1046 10.1019C10.0431 10.0419 9.94804 10.0304 9.87821 10.0804C9.06513 10.6629 8.9242 11.7371 8.37794 12.1354C6.7598 13.3149 5.84393 13.6143 5.90073 14.1212C5.9047 14.1566 5.92376 14.1882 5.94927 14.213L9.49521 17.6722C11.5351 19.6623 16.0265 19.9476 19.7873 19.9999C19.9572 20.0024 20.0419 19.7962 19.9203 19.6775Z" fill="#00AD46"/>
<path fill-rule="evenodd" clip-rule="evenodd" d="M9.49521 17.6722C8.38091 16.5853 7.86389 14.4348 10.0001 10.0001C6.5283 11.5516 5.31166 13.5911 5.91017 14.175L9.49521 17.6722Z" fill="#04D659"/>
<path d="M19.6775 0.0799376L10.1019 9.89564C10.0419 9.95713 10.0304 10.0522 10.0804 10.122C10.6629 10.9351 11.7372 11.076 12.1353 11.6223C13.315 13.2404 13.6143 14.1563 14.1211 14.0995C14.1566 14.0956 14.1881 14.0765 14.213 14.051L17.6722 10.505C19.6623 8.46509 19.9477 3.97377 20 0.212914C20.0023 0.0429642 19.7961 -0.0417253 19.6775 0.0799376Z" fill="#00C7D4"/>
<path fill-rule="evenodd" clip-rule="evenodd" d="M17.6722 10.505C16.5851 11.6193 14.4348 12.1363 10.0001 10.0001C11.5517 13.4718 13.5911 14.6886 14.175 14.09L17.6722 10.505Z" fill="#11E1EE"/>
<path d="M0.0799376 0.322526L9.89564 9.89812C9.95712 9.95811 10.0522 9.96961 10.122 9.91959C10.9351 9.33709 11.076 8.26285 11.6222 7.86462C13.2405 6.68501 14.1563 6.38571 14.0995 5.87883C14.0955 5.84342 14.0764 5.81185 14.051 5.78697L10.505 2.32776C8.4651 0.337737 3.97377 0.0523569 0.212914 2.01801e-05C0.0429642 -0.00234547 -0.0417253 0.203839 0.0799376 0.322526Z" fill="#E43921"/>
<path fill-rule="evenodd" clip-rule="evenodd" d="M10.505 2.32776C11.6193 3.41481 12.1363 5.56521 10 9.99993C13.4718 8.44842 14.6885 6.40887 14.0899 5.825L10.505 2.32776Z" fill="#FF7557"/>
<path fill-rule="evenodd" clip-rule="evenodd" d="M2.32787 9.49505C3.41492 8.38075 5.56539 7.86383 10.0001 10.0001C8.44859 6.52825 6.40904 5.31155 5.82517 5.91005L2.32787 9.49505Z" fill="#0CB6FF"/>
<path d="M10.0068 10.4268C10.2433 10.4239 10.4326 10.2298 10.4297 9.99337C10.4268 9.75691 10.2327 9.5676 9.99625 9.57053C9.75979 9.57346 9.57048 9.76752 9.5734 10.004C9.57633 10.2404 9.77039 10.4297 10.0068 10.4268Z" fill="#4A4848"/>
</svg>

<svg xmlns="http://www.w3.org/2000/svg" width="20" height="20" fill="none" viewBox="0 0 20 20">
    <path fill="#017cee" d="m.323 19.92 9.575-9.816a.18.18 0 0 0 .022-.226c-.583-.813-1.657-.954-2.055-1.5C6.685 6.76 6.385 5.844 5.879 5.9a.16.16 0 0 0-.092.048l-3.46 3.546C.338 11.535.053 16.026 0 19.787a.188.188 0 0 0 .323.133"/>
    <path fill="#00ad46" d="m19.92 19.678-9.815-9.576a.18.18 0 0 0-.227-.022c-.813.583-.954 1.657-1.5 2.055-1.618 1.18-2.534 1.48-2.477 1.986a.15.15 0 0 0 .048.092l3.546 3.46c2.04 1.99 6.531 2.275 10.292 2.327a.188.188 0 0 0 .133-.323"/>
    <path fill="#04d659" fill-rule="evenodd" d="M9.495 17.672C8.381 16.585 7.864 14.435 10 10c-3.472 1.552-4.688 3.591-4.09 4.175z" clip-rule="evenodd"/>
    <path fill="#00c7d4" d="m19.678.08-9.576 9.816a.18.18 0 0 0-.022.226c.583.813 1.657.954 2.055 1.5 1.18 1.618 1.48 2.534 1.986 2.478a.15.15 0 0 0 .092-.049l3.46-3.546C19.662 8.465 19.947 3.974 20 .213a.188.188 0 0 0-.323-.133"/>
    <path fill="#11e1ee" fill-rule="evenodd" d="M17.672 10.505C16.585 11.619 14.435 12.136 10 10c1.552 3.472 3.591 4.689 4.175 4.09z" clip-rule="evenodd"/>
    <path fill="#e43921" d="m.08.323 9.816 9.575c.061.06.156.072.226.022.813-.583.954-1.657 1.5-2.055 1.619-1.18 2.534-1.48 2.478-1.986a.16.16 0 0 0-.049-.092l-3.546-3.46C8.465.338 3.974.053.213 0A.188.188 0 0 0 .08.323"/>
    <path fill="#ff7557" fill-rule="evenodd" d="M10.505 2.328C11.619 3.415 12.136 5.565 10 10c3.472-1.552 4.688-3.591 4.09-4.175z" clip-rule="evenodd"/>
    <path fill="#0cb6ff" fill-rule="evenodd" d="M2.328 9.495C3.415 8.381 5.565 7.864 10 10 8.45 6.528 6.41 5.312 5.825 5.91z" clip-rule="evenodd"/>
    <path fill="#4a4848" d="M10.007 10.427a.428.428 0 1 0-.01-.857.428.428 0 0 0 .01.857"/>
</svg>
